icons/1_Primary/Uptime Kuma.svg

<svg xmlns="http://www.w3.org/2000/svg" width="1024" height="1024" fill="none">
   <g clip-path="url(#a)">
      <path fill="#96DFD3" d="M512 1024c282.77 0 512-229.23 512-512S794.77 0 512 0 0 229.23 0 512s229.23 512 512 512Z"/>
      <path fill="#fff" d="m734.66 406.26-2.47-5.64-3.26-5.23c-25.26-40.56-56.9-71.94-94-93.26C597 280.37 554 269.35 507 269.35s-90 11.08-127.75 32.94c-37.07 21.48-68.44 53.08-93.24 93.91l-3.5 5.77-2.51 6.25C258.46 461 248 507.33 248 550c0 51.57 15.35 96 45.61 132 50.34 59.87 138.65 72.7 205.08 72.7h3.13a525.94 525.94 0 0 0 104.39-11.13c37.12-7.88 68.49-19.16 93.24-33.53C728 693.4 776 652.84 776 567.59c0-44.97-13.52-97.74-41.34-161.33ZM656.8 636.49c-68.45 39.72-246.81 51.83-298.15-9.23-34.227-40.707-34.227-103.04 0-187 34.807-57.334 84.273-86 148.4-86 64.127 0 114.047 28.666 149.76 86 45.62 104.34 45.617 169.75-.01 196.23Zm-75.25-156.08c21 49.5 24.34 75.52 24.47 86.5-17.77 7.39-52.33 16.23-96.46 17.62-49.59 1.56-79.12-7.8-86.71-13C421 569 418 563.32 418 550c0-12.93 3-35.53 16.74-71 18.63-28.14 40-39.74 72.35-39.74 33 .04 54.91 12.03 74.46 41.15Z"/>
   </g>
   <defs>
      <clipPath id="a">
         <path fill="#fff" d="M0 0h1024v1024H0z"/>
      </clipPath>
   </defs>
</svg>

<svg width="1024" height="1024" viewBox="0 0 1024 1024" fill="none" xmlns="http://www.w3.org/2000/svg">
<g clip-path="url(#clip0_2_3807)">
<path d="M512 1024C794.77 1024 1024 794.77 1024 512C1024 229.23 794.77 0 512 0C229.23 0 0 229.23 0 512C0 794.77 229.23 1024 512 1024Z" fill="#96DFD3"/>
<path d="M734.66 406.26L732.19 400.62L728.93 395.39C703.67 354.83 672.03 323.45 634.93 302.13C597 280.37 554 269.35 507 269.35C460 269.35 417 280.43 379.25 302.29C342.18 323.77 310.81 355.37 286.01 396.2L282.51 401.97L280 408.22C258.46 461 248 507.33 248 550C248 601.57 263.35 646 293.61 682C343.95 741.87 432.26 754.7 498.69 754.7H501.82C536.901 754.481 571.872 750.752 606.21 743.57C643.33 735.69 674.7 724.41 699.45 710.04C728 693.4 776 652.84 776 567.59C776 522.62 762.48 469.85 734.66 406.26ZM656.8 636.49C588.35 676.21 409.99 688.32 358.65 627.26C324.423 586.553 324.423 524.22 358.65 440.26C393.457 382.926 442.923 354.26 507.05 354.26C571.177 354.26 621.097 382.926 656.81 440.26C702.43 544.6 702.427 610.01 656.8 636.49ZM581.55 480.41C602.55 529.91 605.89 555.93 606.02 566.91C588.25 574.3 553.69 583.14 509.56 584.53C459.97 586.09 430.44 576.73 422.85 571.53C421 569 418 563.32 418 550C418 537.07 421 514.47 434.74 479C453.37 450.86 474.74 439.26 507.09 439.26C540.09 439.3 562 451.29 581.55 480.41Z" fill="white"/>
</g>
<defs>
<clipPath id="clip0_2_3807">
<rect width="1024" height="1024" fill="white"/>
</clipPath>
</defs>
</svg>
